dist/flags/l/570.svg

<svg width="32" height="24" viewBox="0 0 32 24" fill="none" xmlns="http://www.w3.org/2000/svg">
<mask id="mask0" mask-type="alpha" maskUnits="userSpaceOnUse" x="0" y="0" width="32" height="24">
<rect width="32" height="24" fill="white"/>
</mask>
<g mask="url(#mask0)">
<path fill-rule="evenodd" clip-rule="evenodd" d="M0 0V24H32V0H0Z" fill="#2E42A5"/>
<mask id="mask1" mask-type="alpha" maskUnits="userSpaceOnUse" x="0" y="0" width="32" height="24">
<path fill-rule="evenodd" clip-rule="evenodd" d="M0 0V24H32V0H0Z" fill="white"/>
</mask>
<g mask="url(#mask1)">
<path fill-rule="evenodd" clip-rule="evenodd" d="M0 16V24H32V16H0Z" fill="#FECA00"/>
<mask id="mask2" mask-type="alpha" maskUnits="userSpaceOnUse" x="0" y="0" width="32" height="16">
<rect width="32" height="16" fill="white"/>
</mask>
<g mask="url(#mask2)">
<path d="M-2.26221 15.1294L4.08051 16.5967L17.6016 9.12575L19.0323 8.28913L31.8759 1.57348L34.9186 -0.547552L27.9589 -1.18941L16.7373 5.1406L8.62795 9.12575L-2.26221 15.1294Z" fill="white"/>
<path d="M-1.70496 16.0188L1.70999 17.1389L33.6489 -0.8141H28.854L-1.70496 16.0188Z" fill="#F50100"/>
<path d="M34.3707 14.7308L34.6226 16.2408L27.9194 16.5967L17.1133 10.2673L16.0944 10.6154L-4.08046 0.410646L4.24937 -1.19269L15.3853 4.95919L24.0968 9.16845L34.3707 14.7308Z" fill="white"/>
<path d="M34.3938 15.6369L30.9789 16.7571L17.3789 9.07046L13.3468 8.21165L-3.25893 -0.537827H1.53605L18.1325 8.00398L22.5409 9.03378L34.3938 15.6369Z" fill="#F50100"/>
<path d="M13.189 -1.25V-2.5H11.939V-1.25H13.189ZM13.189 4.75V6H14.439V4.75H13.189ZM-1.25 4.75V3.5H-2.5V4.75H-1.25ZM-1.25 11.25H-2.5V12.5H-1.25V11.25ZM13.189 11.25H14.439V10H13.189V11.25ZM13.189 19.25H11.939V20.5H13.189V19.25ZM18.8775 19.25V20.5H20.1275V19.25H18.8775ZM18.8775 11.25V10H17.6275V11.25H18.8775ZM33.25 11.25V12.5H34.5V11.25H33.25ZM33.25 4.75H34.5V3.5H33.25V4.75ZM18.8775 4.75H17.6275V6H18.8775V4.75ZM18.8775 -1.25H20.1275V-2.5H18.8775V-1.25ZM16.3775 4.75V6H17.6275V4.75H16.3775ZM16.3775 1.25H17.6275V0H16.3775V1.25ZM15.689 1.25V0H14.439V1.25H15.689ZM15.689 4.75H14.439V6H15.689V4.75ZM16.3775 7.25H17.6275V6H16.3775V7.25ZM15.689 7.25V6H14.439V7.25H15.689ZM16.3775 8.75V10H17.6275V8.75H16.3775ZM15.689 8.75H14.439V10H15.689V8.75ZM13.189 7.25H14.439V6H13.189V7.25ZM1.25 7.25V6H0V7.25H1.25ZM1.25 8.75H0V10H1.25V8.75ZM13.189 8.75V10H14.439V8.75H13.189ZM15.689 11.25V10H14.439V11.25H15.689ZM15.689 16.75H14.439V18H15.689V16.75ZM16.3775 16.75V18H17.6275V16.75H16.3775ZM16.3775 11.25H17.6275V10H16.3775V11.25ZM18.8775 7.25V6H17.6275V7.25H18.8775ZM18.8775 8.75H17.6275V10H18.8775V8.75ZM30.75 7.25H32V6H30.75V7.25ZM30.75 8.75V10H32V8.75H30.75ZM13.189 0H14.439V-2.5H13.189V0ZM14.439 0V-1.25H11.939V0H14.439ZM14.439 4.75V0H11.939V4.75H14.439ZM0 6H13.189V3.5H0V6ZM-1.25 6H0V3.5H-1.25V6ZM0 6V4.75H-2.5V6H0ZM0 10V6H-2.5V10H0ZM0 11.25V10H-2.5V11.25H0ZM0 10H-1.25V12.5H0V10ZM13.189 10H0V12.5H13.189V10ZM14.439 18V11.25H11.939V18H14.439ZM14.439 19.25V18H11.939V19.25H14.439ZM14.439 18H13.189V20.5H14.439V18ZM17.6275 18H14.439V20.5H17.6275V18ZM18.8775 18H17.6275V20.5H18.8775V18ZM17.6275 18V19.25H20.1275V18H17.6275ZM17.6275 11.25V18H20.1275V11.25H17.6275ZM32 10H18.8775V12.5H32V10ZM33.25 10H32V12.5H33.25V10ZM32 10V11.25H34.5V10H32ZM32 6V10H34.5V6H32ZM32 4.75V6H34.5V4.75H32ZM32 6H33.25V3.5H32V6ZM18.8775 6H32V3.5H18.8775V6ZM17.6275 0V4.75H20.1275V0H17.6275ZM17.6275 -1.25V0H20.1275V-1.25H17.6275ZM17.6275 0H18.8775V-2.5H17.6275V0ZM14.439 0H17.6275V-2.5H14.439V0ZM17.6275 4.75V1.25H15.1275V4.75H17.6275ZM16.3775 0H15.689V2.5H16.3775V0ZM14.439 1.25V4.75H16.939V1.25H14.439ZM15.689 6H16.3775V3.5H15.689V6ZM16.3775 6H15.689V8.5H16.3775V6ZM17.6275 8.75V7.25H15.1275V8.75H17.6275ZM15.689 10H16.3775V7.5H15.689V10ZM14.439 7.25V8.75H16.939V7.25H14.439ZM13.189 6H1.25V8.5H13.189V6ZM0 7.25V8.75H2.5V7.25H0ZM1.25 10H13.189V7.5H1.25V10ZM14.439 8.75V7.25H11.939V8.75H14.439ZM14.439 11.25V16.75H16.939V11.25H14.439ZM15.689 18H16.3775V15.5H15.689V18ZM17.6275 16.75V11.25H15.1275V16.75H17.6275ZM16.3775 10H15.689V12.5H16.3775V10ZM17.6275 7.25V8.75H20.1275V7.25H17.6275ZM30.75 6H18.8775V8.5H30.75V6ZM32 8.75V7.25H29.5V8.75H32ZM18.8775 10H30.75V7.5H18.8775V10Z" fill="white"/>
<path fill-rule="evenodd" clip-rule="evenodd" d="M17.6923 -1.33337H14.3077V5.99996H0V9.99996H14.3077V19.3333H17.6923V9.99996H34V5.99996H17.6923V-1.33337Z" fill="#F50100"/>
</g>
<path fill-rule="evenodd" clip-rule="evenodd" d="M16.05 10.6C17.5688 10.6 18.8 9.36876 18.8 7.84998C18.8 6.33119 17.5688 5.09998 16.05 5.09998C14.5313 5.09998 13.3 6.33119 13.3 7.84998C13.3 9.36876 14.5313 10.6 16.05 10.6Z" fill="#2E42A5"/>
<path fill-rule="evenodd" clip-rule="evenodd" d="M16.1 8.69127L14.8021 9.59441L15.26 8.08098L14 7.12571L15.5809 7.0935L16.1 5.59998L16.6191 7.0935L18.2 7.12571L16.94 8.08098L17.3979 9.59441L16.1 8.69127Z" fill="#FECA00"/>
<path fill-rule="evenodd" clip-rule="evenodd" d="M7.09998 8.57608L6.01842 9.3287L6.39998 8.0675L5.34998 7.27145L6.66735 7.2446L7.09998 6L7.5326 7.2446L8.84998 7.27145L7.79998 8.0675L8.18154 9.3287L7.09998 8.57608Z" fill="#FECA00"/>
<path fill-rule="evenodd" clip-rule="evenodd" d="M25.1 8.57608L24.0184 9.3287L24.4 8.0675L23.35 7.27145L24.6674 7.2446L25.1 6L25.5326 7.2446L26.85 7.27145L25.8 8.0675L26.1815 9.3287L25.1 8.57608Z" fill="#FECA00"/>
<path fill-rule="evenodd" clip-rule="evenodd" d="M16.1 3.77603L15.0184 4.52865L15.4 3.26745L14.35 2.4714L15.6674 2.44455L16.1 1.19995L16.5326 2.44455L17.85 2.4714L16.8 3.26745L17.1815 4.52865L16.1 3.77603Z" fill="#FECA00"/>
<path fill-rule="evenodd" clip-rule="evenodd" d="M16.1 14.376L15.0184 15.1286L15.4 13.8674L14.35 13.0714L15.6674 13.0445L16.1 11.7999L16.5326 13.0445L17.85 13.0714L16.8 13.8674L17.1815 15.1286L16.1 14.376Z" fill="#FECA00"/>
</g>
</g>
</svg>

<svg width="32" height="24" fill="none" xmlns="http://www.w3.org/2000/svg">
  <mask id="a" maskUnits="userSpaceOnUse" x="0" y="0" width="32" height="24">
    <path fill="#fff" d="M0 0h32v24H0z"/>
  </mask>
  <g mask="url(#a)">
    <path fill-rule="evenodd" clip-rule="evenodd" d="M0 0v24h32V0H0z" fill="#2E42A5"/>
    <mask id="b" maskUnits="userSpaceOnUse" x="0" y="0" width="32" height="24">
      <path fill-rule="evenodd" clip-rule="evenodd" d="M0 0v24h32V0H0z" fill="#fff"/>
    </mask>
    <g mask="url(#b)">
      <path fill-rule="evenodd" clip-rule="evenodd" d="M0 16v8h32v-8H0z" fill="#FECA00"/>
      <mask id="c" maskUnits="userSpaceOnUse" x="0" y="0" width="32" height="16">
        <path fill="#fff" d="M0 0h32v16H0z"/>
      </mask>
      <g mask="url(#c)">
        <path d="M-2.262 15.13l6.343 1.467L17.6 9.126l1.431-.837 12.844-6.716 3.043-2.12-6.96-.642-11.222 6.33-8.109 3.985-10.89 6.003z" fill="#fff"/>
        <path d="M-1.705 16.019l3.415 1.12L33.649-.814h-4.795L-1.705 16.019z" fill="#F50100"/>
        <path d="M34.37 14.73l.253 1.51-6.704.357-10.806-6.33-1.019.348L-4.08.411l8.33-1.604L15.384 4.96l8.712 4.21 10.274 5.56z" fill="#fff"/>
        <path d="M34.394 15.637l-3.415 1.12-13.6-7.686-4.032-.86L-3.26-.537h4.795l16.596 8.542 4.409 1.03 11.853 6.603z" fill="#F50100"/>
        <path d="M13.189-1.25V-2.5h-1.25v1.25h1.25zm0 6V6h1.25V4.75h-1.25zm-14.439 0V3.5H-2.5v1.25h1.25zm0 6.5H-2.5v1.25h1.25v-1.25zm14.439 0h1.25V10h-1.25v1.25zm0 8h-1.25v1.25h1.25v-1.25zm5.689 0v1.25h1.25v-1.25h-1.25zm0-8V10h-1.25v1.25h1.25zm14.372 0v1.25h1.25v-1.25h-1.25zm0-6.5h1.25V3.5h-1.25v1.25zm-14.372 0h-1.25V6h1.25V4.75zm0-6h1.25V-2.5h-1.25v1.25zm-2.5 6V6h1.25V4.75h-1.25zm0-3.5h1.25V0h-1.25v1.25zm-.689 0V0h-1.25v1.25h1.25zm0 3.5h-1.25V6h1.25V4.75zm.689 2.5h1.25V6h-1.25v1.25zm-.689 0V6h-1.25v1.25h1.25zm.689 1.5V10h1.25V8.75h-1.25zm-.689 0h-1.25V10h1.25V8.75zm-2.5-1.5h1.25V6h-1.25v1.25zm-11.939 0V6H0v1.25h1.25zm0 1.5H0V10h1.25V8.75zm11.939 0V10h1.25V8.75h-1.25zm2.5 2.5V10h-1.25v1.25h1.25zm0 5.5h-1.25V18h1.25v-1.25zm.689 0V18h1.25v-1.25h-1.25zm0-5.5h1.25V10h-1.25v1.25zm2.5-4V6h-1.25v1.25h1.25zm0 1.5h-1.25V10h1.25V8.75zm11.872-1.5H32V6h-1.25v1.25zm0 1.5V10H32V8.75h-1.25zM13.189 0h1.25v-2.5h-1.25V0zm1.25 0v-1.25h-2.5V0h2.5zm0 4.75V0h-2.5v4.75h2.5zM0 6h13.189V3.5H0V6zm-1.25 0H0V3.5h-1.25V6zM0 6V4.75h-2.5V6H0zm0 4V6h-2.5v4H0zm0 1.25V10h-2.5v1.25H0zM0 10h-1.25v2.5H0V10zm13.189 0H0v2.5h13.189V10zm1.25 8v-6.75h-2.5V18h2.5zm0 1.25V18h-2.5v1.25h2.5zm0-1.25h-1.25v2.5h1.25V18zm3.189 0h-3.189v2.5h3.189V18zm1.25 0h-1.25v2.5h1.25V18zm-1.25 0v1.25h2.5V18h-2.5zm0-6.75V18h2.5v-6.75h-2.5zM32 10H18.878v2.5H32V10zm1.25 0H32v2.5h1.25V10zM32 10v1.25h2.5V10H32zm0-4v4h2.5V6H32zm0-1.25V6h2.5V4.75H32zM32 6h1.25V3.5H32V6zM18.878 6H32V3.5H18.878V6zm-1.25-6v4.75h2.5V0h-2.5zm0-1.25V0h2.5v-1.25h-2.5zm0 1.25h1.25v-2.5h-1.25V0zm-3.189 0h3.189v-2.5h-3.189V0zm3.189 4.75v-3.5h-2.5v3.5h2.5zM16.378 0h-.689v2.5h.689V0zm-1.939 1.25v3.5h2.5v-3.5h-2.5zM15.689 6h.689V3.5h-.689V6zm.689 0h-.689v2.5h.689V6zm1.25 2.75v-1.5h-2.5v1.5h2.5zM15.689 10h.689V7.5h-.689V10zm-1.25-2.75v1.5h2.5v-1.5h-2.5zM13.189 6H1.25v2.5h11.939V6zM0 7.25v1.5h2.5v-1.5H0zM1.25 10h11.939V7.5H1.25V10zm13.189-1.25v-1.5h-2.5v1.5h2.5zm0 2.5v5.5h2.5v-5.5h-2.5zm1.25 6.75h.689v-2.5h-.689V18zm1.939-1.25v-5.5h-2.5v5.5h2.5zM16.378 10h-.689v2.5h.689V10zm1.25-2.75v1.5h2.5v-1.5h-2.5zM30.75 6H18.878v2.5H30.75V6zM32 8.75v-1.5h-2.5v1.5H32zM18.878 10H30.75V7.5H18.878V10z" fill="#fff"/>
        <path fill-rule="evenodd" clip-rule="evenodd" d="M17.692-1.333h-3.384V6H0v4h14.308v9.333h3.384V10H34V6H17.692v-7.333z" fill="#F50100"/>
      </g>
      <path fill-rule="evenodd" clip-rule="evenodd" d="M16.05 10.6a2.75 2.75 0 100-5.5 2.75 2.75 0 000 5.5z" fill="#2E42A5"/>
      <path fill-rule="evenodd" clip-rule="evenodd" d="M16.1 8.691l-1.298.903.458-1.513L14 7.126l1.58-.032.52-1.494.52 1.494 1.58.032-1.26.955.458 1.513-1.298-.903zm-9-.115l-1.082.753.382-1.261-1.05-.797 1.317-.026L7.1 6l.433 1.245 1.317.026-1.05.797.382 1.26L7.1 8.577zm18 0l-1.082.753.382-1.261-1.05-.797 1.317-.026L25.1 6l.433 1.245 1.317.026-1.05.797.381 1.26-1.081-.752zm-9-4.8l-1.082.753.382-1.261-1.05-.797 1.317-.026L16.1 1.2l.433 1.245 1.317.026-1.05.797.381 1.26-1.081-.752zm0 10.6l-1.082.753.382-1.261-1.05-.796 1.317-.027.433-1.245.433 1.245 1.317.027-1.05.796.381 1.26-1.081-.752z" fill="#FECA00"/>
    </g>
  </g>
</svg>
